!!!OTL: 584. Die Feldflasche.
!!!COM: Karl Keller
!!!ODT: 1814
!!!ARE: Europa, Mitteleuropa, Deutschland
!!!SCT: B0584
!!!TXL: @@DE
!!!YEM: Copyright 1995, estate of Helmut Schaffrath.
**kern	**text
*ICvox	*
*Ivox	*
*clefG2	*
*M3/4	*
*k[f#]	*
*G:	*
!LO:TX:a:t=Ʒiemlich langsam.	!
{8d	Helft,
=1	=1
8.a	Leut-
16g	-chen,
4.g	mir
8b	vom
=2	=2
8.ee	Wa-
16dd	-gen
4dd	doch!
8r}	.
{8dd	Seht
=3	=3
4.ee	her,
8cc	mein
8a	Arm
8b	iſt
=4	=4
4g	ſchwach.
4r	.
8r}	.
{8d	Jch
=5	=5
8.a	trag
16g	ihn
4.g	in
8b	der
=6	=6
8.ee	Bin-
16dd	-de
4dd	noch,
8r}	.
{8dd	he
=7	=7
4.ee	Leut-
8cc	-chen,
8a	fein
8b	ge-
=8	=8
4g	-mach!
4r	.
8r}	.
{8dd	Ʒer-
=9	=9
8dd	-brecht
8cc	mir
4.a	nur
8cc	die
=10	=10
8ee	Fla-
8dd	-ſche
4.b}	nicht,
{8dd	ſonſt
=11	=11
4.gg	werd
8a	ich
8b	wild
8cc#	und
=12	=12
2dd	kraus!
8r}	.
{8d	Wenn
=13	=13
8.a	die-
16g	-ſe
4.g	Fla-
8b	-ſche
=14	=14
8.ee	mit
16dd	ʒerbricht,
4dd	.
8r}	.
{8dd	ſind
=15	=15
4.ee	al-
8cc	-le
8a	Freuden
8b	.
=16	=16
4g	aus,
4r}	.
{8gL	ſind
8ggJ	.
=17	=17
2gg	al-
4cc#	-le
=18	=18
2dd	Freu-
8aL	-den
8bJ	.
=19	=19
2g	aus.
8r}	.
==	==
!!!AGN: Soldaten - Lied, Ballade
!!!GTL: Soldatenlieder
!!!ONB: ESAC (Essen Associative Code) Database: BOEHME
!!!AMT: simple triple
!!!AIN: vox
!!!EED: Helmut Schaffrath
!!!EEV: 1.0
!!Mel. v. Karl Keller. 1814 (Originalform).
!!@@COMMENT:"Gedicht von Joh. Emanuel Veith, bald nach der Schlacht bei Leipʒig entſtanden und im
!!Jahre 1814 auf fl. Blättern gedruckt. Dann in Dichtungen für Kunſtredner. Herausgegeben von
!!Deinhardſtein. Wien und Trieſt 1816* Nr. 469. Das Lied wurde bis 1830 viel geſungen.[...]"
!!@@END:
!!!Text: J. E. Veith
!!!URL-scan: https://archive.org/details/BoehmeVtLieder1895/page/n463/mode/2up
!!!ENC: Anna Maria Matuszewska
!!!EEV: 2024/12/07
*-	*-
